X:1
T:Title
%%score { 1 | 2 }
L:1/8
Q:1/4=116
M:4/4
K:Eb
V:1 treble nm="Grand Piano"
V:2 bass 
V:1
 [B,EG]4 [G,E]2 [B,DF]2 | [B,EG]2 [B,EA]2 [B,EB]4 | [B,EG]4 [B,FA]2 [A,DF]2 | [G,E]8 | %4
w: J.~H.~Burke * *||||
 [B,EG]4 [G,E]2 [B,DF]2 | [B,EG]2 [B,EA]2 [B,EB]4 | [B,EG]4 [B,FA]2 [A,DF]2 | [G,E]8 | %8
w: ||||
 [Ec]4 [CEA]2 [Ec]2 | [EB]2 [EG]2 [GB]4 | [FA]4 [DF]2 [FA]2 | [DA]2 [DF]2 G4 | B4 G2 [GB]2 | %13
w: |||||
 [Ae]2 [Ac]2 B2 E2 | G4 [FA]2 [DF]2 | E8 |] %16
w: |||
V:2
 E,4 E,2 B,,2 | E,2 F,2 G,4 | E,4 B,,2 B,,2 | E,8 | E,4 E,2 B,,2 | E,2 F,2 G,4 | E,4 B,,2 B,,2 | %7
 E,8 | [A,,A,]4 A,,2 [A,,A,]2 | [E,G,]2 [E,B,]2 [E,B,]4 | [B,,B,]4 [B,,B,]2 [B,,B,]2 | %11
 [B,,B,]2 [B,,B,]2 [E,B,E]4 | [E,G,E]4 [E,B,E]2 [E,B,]2 | [A,,C]2 [C,A,]2 [E,G,E]2 [G,B,]2 | %14
 [B,E]4 [B,,B,]2 [B,,A,]2 | [E,G,]8 |] %16

